**kern	**kern
*part1	*part1
*staff2	*staff1
*I"Piano	*
*clefF4	*clefG2
*k[b-e-]	*k[b-e-]
=1	=1
2.GG	8B-L
.	8d
.	8g
.	8b-
.	8d
.	8gJ
=	=
2.BB-	8GL
.	8B-
.	8d
.	8g
.	8B-
.	8dJ
=	=
2.C	8A-XL
.	8c
.	8e-
.	8a-X
.	8c
.	8e-J
=	=
2.D	8BnL
.	8f
.	8g
.	8bn
.	8f
.	8gJ
=	=
2.E-	8cL
.	8e-
.	8g
.	8cc
.	8e-
.	8gJ
=	=
2.D	8AL
.	8c
.	8d
.	8g
.	8c
.	8dJ
=	=
2.D	8AL
.	8c
.	8d
.	8f#X
.	8c
.	8dJ
=:|!	=:|!
[2.GG [2.G	8r
.	8B-L
.	8d
.	8g
.	8b-
.	8gJ
=	=
*^	*
2.GG] 2.G]	4rGGyy	8dL
.	.	8B-
.	8rGGyy	8G
.	8DL	8reyy
.	8BB-	8reyy
.	8DJ	8dJyy
*v	*v	*
=	=
4GGG 4GG	2.r
4r	.
4r	.
==	==
*-	*-
!!!system-decoration: {(s1,s2)}
